apps-symbolic-unstable/non-symlinks/nino-symbolic.svg

<svg xmlns="http://www.w3.org/2000/svg" width="16" height="16" version="1.1">
 <path fill="#ececec" opacity="0.6" fill-rule="evenodd" d="m 3.804,15.38 c 0.036,0.003 0.067,0.007 0.103,0.009 0.028,0.001 0.067,0 0.096,0.002 L 4,14.897 5.733,13.304 v -0.531 l 0.8,-0.796 v -0.398 l 0.4,-0.398 V 10.119 L 6.4,9.588 H 5.333 L 4.8,9.058 H 3.467 l -0.534,0.53 v 1.328 L 4.004,11.849 4,13.039 3.6,13.437 v 1.725 l 0.204,0.218 v 0 0 0 0 z M 6.133,5.077 5.733,5.475 h 0.4 L 6.267,5.607 H 6.4 L 6.533,5.475 6.133,5.077 v 0 0 0 0 z M 11.2,6.934 H 9.6 L 8.667,7.863 V 9.19 l 0.666,0.664 h 0.934 l 0.4,0.398 v 0.398 l 0.266,0.266 v 1.592 l 1.013,1.065 1.672,-1.664 L 13.6,10.385 14.933,9.058 H 14.4 L 13.067,7.731 V 7.2 h -1.6 L 11.2,6.934 v 0 0 0 z M 16,7.465 V 6.068 C 16,5.466 15.989,4.928 15.961,4.448 15.947,4.209 15.928,3.983 15.904,3.771 15.88,3.56 15.851,3.362 15.816,3.176 15.781,2.991 15.74,2.818 15.692,2.657 15.643,2.497 15.588,2.348 15.526,2.21 15.486,2.122 15.437,2.047 15.39,1.968 L 15.2,2.157 H 14.4 L 13.6,2.953 13.067,2.422 h -1.6 l -0.8,0.797 v 0.663 h 0.8 V 3.484 H 12 v 0.531 l -0.267,0.265 -1.066,0.018 -0.4,0.38 H 9.733 v 0.531 l -0.4,0.398 v 0.796 h 0.8 l 0.534,-0.53 H 11.2 v 0.265 l 0.533,0.531 H 12 V 6.403 L 11.467,5.873 H 12 l 0.533,0.53 H 13.2 L 12.8,6.005 13.2,5.607 h 0.4 L 14,6.005 H 13.6 L 13.2,6.403 13.593,6.794 13.6,7.2 h -0.533 l 1.6,1.592 h 0.266 L 15.2,8.527 15.733,7.996 15.2,7.465 H 16 v 0 0 z M 9.867,4.413 V 4.015 l 0.4,-0.398 v 0.796 h -0.4 v 0 z M 14,12.243 v -0.832 l 0.533,-0.495 v 1.327 H 14 Z M 8.533,0.565 H 5.535 c -0.051,0 -0.087,0.003 -0.138,0.003 l -0.464,0.527 0.8,0.797 V 2.724 L 6.667,3.749 H 7.2 V 3.219 L 8,2.422 V 1.892 L 8.533,1.361 Z M 7.867,3.484 h 0.4 l 0.4,0.398 h -0.8 z m -3.6,4.379 h -0.4 l -0.4,0.399 h 0.8 z M 0.71,1.802 C 0.703,1.812 0.694,1.819 0.687,1.829 0.608,1.946 0.537,2.072 0.474,2.21 0.412,2.348 0.357,2.497 0.308,2.657 0.26,2.818 0.219,2.991 0.184,3.176 0.149,3.362 0.12,3.56 0.096,3.771 0.072,3.983 0.053,4.209 0.039,4.448 0.011,4.928 0,5.466 0,6.068 v 1.397 l 0.533,0.531 h 0.8 L 2.667,9.323 V 7.731 l 0.8,-0.797 H 4 L 4.8,6.138 H 5.6 L 5.2,5.74 6,4.811 5.2,4.015 H 4 V 5.077 H 3.467 L 2.933,4.546 V 4.015 l 0.8,-0.796 H 4.4 V 2.688 L 3.6,1.892 H 2.267 V 2.688 H 1.6 Z M 4,0.601 C 3.972,0.603 3.935,0.602 3.907,0.603 3.666,0.618 3.439,0.636 3.226,0.66 3.013,0.683 2.814,0.712 2.627,0.747 2.461,0.778 2.308,0.816 2.161,0.858 L 2.667,1.361 H 4 Z"/>
 <path fill="#ececec" fill-rule="evenodd" d="M 8.843 7.115 L 8.843 10.341 C 8.843 10.607 9.058 10.823 9.324 10.823 L 11.058 10.823 C 11.324 10.823 11.539 10.607 11.539 10.341 L 11.539 7.115 L 12.068 7.115 C 12.24 7.115 12.4 7.034 12.486 6.903 C 12.572 6.771 12.572 6.609 12.486 6.478 L 11.547 5.049 L 10.609 3.619 C 10.523 3.488 10.363 3.407 10.191 3.407 C 10.018 3.407 9.859 3.488 9.773 3.619 L 8.834 5.049 L 7.896 6.478 C 7.856 6.539 7.834 6.608 7.832 6.678 C 7.828 6.793 7.877 6.904 7.968 6.986 C 8.059 7.069 8.184 7.115 8.314 7.115 L 8.843 7.115 Z M 4.461 9.138 L 4.461 5.911 C 4.461 5.645 4.676 5.43 4.942 5.43 L 6.676 5.43 C 6.941 5.43 7.157 5.645 7.157 5.911 L 7.157 9.138 L 7.686 9.138 C 7.858 9.138 8.018 9.218 8.104 9.35 C 8.19 9.481 8.19 9.643 8.104 9.774 L 7.165 11.204 L 6.227 12.633 C 6.141 12.764 5.981 12.845 5.809 12.845 C 5.636 12.845 5.477 12.764 5.391 12.633 L 4.452 11.204 L 3.514 9.774 C 3.474 9.714 3.452 9.645 3.45 9.575 C 3.446 9.46 3.495 9.349 3.586 9.266 C 3.677 9.184 3.802 9.137 3.932 9.138 L 4.461 9.138 Z"/>
</svg>

<svg xmlns="http://www.w3.org/2000/svg" width="16" height="16" version="1.1">
  <rect fill="#ececec" fill-opacity="0" width="16" height="16"/>
   <path fill="#ececec" fill-rule="evenodd" d="M 3.804 15.38 C 3.84 15.383 3.871 15.387 3.907 15.389 C 3.935 15.39 3.974 15.389 4.003 15.391 L 4 14.897 L 5.733 13.304 L 5.733 12.773 L 6.533 11.977 L 6.533 11.579 L 6.933 11.181 L 6.933 10.119 L 6.4 9.588 L 5.333 9.588 L 4.8 9.058 L 3.467 9.058 L 2.933 9.588 L 2.933 10.916 L 4.004 11.849 L 4 13.039 L 3.6 13.437 L 3.6 15.162 L 3.804 15.38 L 3.804 15.38 L 3.804 15.38 L 3.804 15.38 L 3.804 15.38 L 3.804 15.38 L 3.804 15.38 L 3.804 15.38 L 3.804 15.38 L 3.804 15.38 Z M 6.133 5.077 L 5.733 5.475 L 6.133 5.475 L 6.267 5.607 L 6.4 5.607 L 6.533 5.475 L 6.133 5.077 L 6.133 5.077 L 6.133 5.077 L 6.133 5.077 L 6.133 5.077 L 6.133 5.077 L 6.133 5.077 L 6.133 5.077 L 6.133 5.077 L 6.133 5.077 Z M 11.2 6.934 L 9.6 6.934 L 8.667 7.863 L 8.667 9.19 L 9.333 9.854 L 10.267 9.854 L 10.667 10.252 L 10.667 10.65 L 10.933 10.916 L 10.933 12.508 L 11.946 13.573 L 13.618 11.909 L 13.6 10.385 L 14.933 9.058 L 14.4 9.058 L 13.067 7.731 L 13.067 7.2 L 11.467 7.2 L 11.2 6.934 L 11.2 6.934 L 11.2 6.934 L 11.2 6.934 L 11.2 6.934 L 11.2 6.934 L 11.2 6.934 L 11.2 6.934 L 11.2 6.934 Z M 16 7.465 L 16 6.068 C 16 5.466 15.989 4.928 15.961 4.448 C 15.947 4.209 15.928 3.983 15.904 3.771 C 15.88 3.56 15.851 3.362 15.816 3.176 C 15.781 2.991 15.74 2.818 15.692 2.657 C 15.643 2.497 15.588 2.348 15.526 2.21 C 15.486 2.122 15.437 2.047 15.39 1.968 L 15.2 2.157 L 14.4 2.157 L 13.6 2.953 L 13.067 2.422 L 11.467 2.422 L 10.667 3.219 L 10.667 3.882 L 11.467 3.882 L 11.467 3.484 L 12 3.484 L 12 4.015 L 11.733 4.28 L 10.667 4.298 L 10.267 4.678 L 9.733 4.678 L 9.733 5.209 L 9.333 5.607 L 9.333 6.403 L 10.133 6.403 L 10.667 5.873 L 11.2 5.873 L 11.2 6.138 L 11.733 6.669 L 12 6.669 L 12 6.403 L 11.467 5.873 L 12 5.873 L 12.533 6.403 L 13.2 6.403 L 12.8 6.005 L 13.2 5.607 L 13.6 5.607 L 14 6.005 L 13.6 6.005 L 13.2 6.403 L 13.593 6.794 L 13.6 7.2 L 13.067 7.2 L 14.667 8.792 L 14.933 8.792 L 15.2 8.527 L 15.733 7.996 L 15.2 7.465 L 16 7.465 L 16 7.465 L 16 7.465 L 16 7.465 L 16 7.465 L 16 7.465 L 16 7.465 L 16 7.465 Z M 9.867 4.413 L 9.867 4.015 L 10.267 3.617 L 10.267 4.413 L 9.867 4.413 L 9.867 4.413 L 9.867 4.413 L 9.867 4.413 L 9.867 4.413 L 9.867 4.413 L 9.867 4.413 Z M 14 12.243 L 14 11.411 L 14.533 10.916 L 14.533 12.243 L 14 12.243 L 14 12.243 L 14 12.243 L 14 12.243 L 14 12.243 L 14 12.243 Z M 8.533 0.565 L 5.535 0.565 C 5.484 0.565 5.448 0.568 5.397 0.568 L 4.933 1.095 L 5.733 1.892 L 5.733 2.724 L 6.667 3.749 L 7.2 3.749 L 7.2 3.219 L 8 2.422 L 8 1.892 L 8.533 1.361 L 8.533 0.565 L 8.533 0.565 L 8.533 0.565 L 8.533 0.565 L 8.533 0.565 Z M 7.867 3.484 L 8.267 3.484 L 8.667 3.882 L 7.867 3.882 L 7.867 3.484 L 7.867 3.484 L 7.867 3.484 L 7.867 3.484 Z M 4.267 7.863 L 3.867 7.863 L 3.467 8.262 L 4.267 8.262 L 4.267 7.863 L 4.267 7.863 L 4.267 7.863 Z M 0.71 1.802 C 0.703 1.812 0.694 1.819 0.687 1.829 C 0.608 1.946 0.537 2.072 0.474 2.21 C 0.412 2.348 0.357 2.497 0.308 2.657 C 0.26 2.818 0.219 2.991 0.184 3.176 C 0.149 3.362 0.12 3.56 0.096 3.771 C 0.072 3.983 0.053 4.209 0.039 4.448 C 0.011 4.928 0 5.466 0 6.068 L 0 7.465 L 0.533 7.996 L 1.333 7.996 L 2.667 9.323 L 2.667 7.731 L 3.467 6.934 L 4 6.934 L 4.8 6.138 L 5.6 6.138 L 5.2 5.74 L 6 4.811 L 5.2 4.015 L 4 4.015 L 4 5.077 L 3.467 5.077 L 2.933 4.546 L 2.933 4.015 L 3.733 3.219 L 4.4 3.219 L 4.4 2.688 L 3.6 1.892 L 2.267 1.892 L 2.267 2.688 L 1.6 2.688 L 0.71 1.802 L 0.71 1.802 Z M 4 0.601 C 3.972 0.603 3.935 0.602 3.907 0.603 C 3.666 0.618 3.439 0.636 3.226 0.66 C 3.013 0.683 2.814 0.712 2.627 0.747 C 2.461 0.778 2.308 0.816 2.161 0.858 L 2.667 1.361 L 4 1.361 L 4 0.601 Z"/>
  <path fill="#ececec" fill-rule="evenodd" d="M 8.843 7.115 L 8.843 10.341 C 8.843 10.607 9.058 10.823 9.324 10.823 L 11.058 10.823 C 11.324 10.823 11.539 10.607 11.539 10.341 L 11.539 7.115 L 12.068 7.115 C 12.24 7.115 12.4 7.034 12.486 6.903 C 12.572 6.771 12.572 6.609 12.486 6.478 L 11.547 5.049 L 10.609 3.619 C 10.523 3.488 10.363 3.407 10.191 3.407 C 10.018 3.407 9.859 3.488 9.773 3.619 L 8.834 5.049 L 7.896 6.478 C 7.856 6.539 7.834 6.608 7.832 6.678 C 7.828 6.793 7.877 6.904 7.968 6.986 C 8.059 7.069 8.184 7.115 8.314 7.115 L 8.843 7.115 Z M 4.461 9.138 L 4.461 5.911 C 4.461 5.645 4.676 5.43 4.942 5.43 L 6.676 5.43 C 6.941 5.43 7.157 5.645 7.157 5.911 L 7.157 9.138 L 7.686 9.138 C 7.858 9.138 8.018 9.218 8.104 9.35 C 8.19 9.481 8.19 9.643 8.104 9.774 L 7.165 11.204 L 6.227 12.633 C 6.141 12.764 5.981 12.845 5.809 12.845 C 5.636 12.845 5.477 12.764 5.391 12.633 L 4.452 11.204 L 3.514 9.774 C 3.474 9.714 3.452 9.645 3.45 9.575 C 3.446 9.46 3.495 9.349 3.586 9.266 C 3.677 9.184 3.802 9.137 3.932 9.138 L 4.461 9.138 Z"/>
</svg>
